!!!!SEGMENT: pl-sa--552-a-ix-32--025_anonim--ecosses.krn
!!!cenid: 18xx:536
!!!COM: Anonim
!!!COM-rismID: pe30004985
!!!CDT:
!!!CNT:
!!!OTL: Ecosses
!!!PDT:
!!!AGN: Secular
!!!SMS-siglum: PL-SA
!!!SMS-shelfmark: 552/A IX 32
!!!SMS-shelfwork: 025 W
!!!SMS-variant:
!!!SMS-altvar:
!!!NIFC-rismSourceID: 1001069567
!!!NIFC-islandoraID:
!!!URL-pdf-islandora:
!!!URL-scan: https://bc.bdsandomierz.pl/dlibra/publication/1308/edition/1276/content @EN{Scan in the Sandomierz Diocese Digital Library} @PL{Skany w portalu Cyfrowa Biblioteka Diecezjalna w Sandomierzu}
!!!ONB-nifc: Str. 13, s. 5-6
!!!AIN: 2 empty
!!!key:
**kern	**kern
*part2	*part1
*staff2	*staff1
*Iempty	*Iempty
*I"	*I"
*I'keyb	*I'keyb
*clefF4	*clefG2
*k[]	*k[]
*C:	*C:
*M2/4	*M2/4
=1	=1
!	!LO:TX:a:i:t=Ecosses
4C\ 4E	4g/
4G\	8e/L
.	8g/J
=2	=2
*rep	*
!LO:TX:a:t=P:problem=brak oznaczeń cyfrowych nad powtórzeniami	!
4C\ 4E	4cc\
4G\	8g\L
.	8cc\J
*Xrep	*
=3	=3
*rep	*
4C\ 4E	4g\ 4ee
4G\	4f\ 4dd
*Xrep	*
=4	=4
*rep	*
4C\ 4E	4e/ 4cc
4G\	4d/ 4b
*Xrep	*
=5	=5
!	!LO:TX:a:t=P:problem=znak początku repetycji
4D\ 4F	8b\L
.	8a\
4G\	8g#X\
.	8a\J
!	!LO:TX:a:t=P:problem=znak końca repetycji
=6	=6
!LO:TX:a:t=P:problem=repetycja taktu	!
4D\ 4F	8b\L
.	8a\
4G\	8g#X\
.	8a\J
=7	=7
*rep	*
4D\ 4F	4ff\
4G\	8dd\L
.	8b\J
*Xrep	*
=8	=8
4C\ 4E	4cc\
4r	4r
=9:|!|:	=9:|!|:
4G\ 4c 4e	8gg\L
.	8ee\
*rep	*
4G\ 4c 4e	8cc\
.	8ee\J
*Xrep	*
=10	=10
*rep	*
4G\ 4c 4e	8gg\L
.	8ccc\
4G\ 4c 4e	8eee\
.	8ccc\J
*Xrep	*
!!LO:LB:g=original
=11	=11
4G\ 4B 4d	8bb\L
.	8ccc\
4G\ 4B 4d	8ddd\
.	8bb\J
=12	=12
*rep	*
4G\ 4B 4d	8gg\L
.	8aa\
4G\ 4B 4d	8bb\
.	8gg\J
*Xrep	*
=13	=13
4G\ 4c 4e	8aa\L
.	8gg\
*rep	*
4G\ 4c 4e	8ee\
.	8gg\J
*Xrep	*
=14	=14
*rep	*
4G\ 4c 4e	8ccc\L
.	8gg\
4G\ 4c 4e	8eee\
.	8ccc\J
*Xrep	*
=15	=15
4G\ 4B 4d	8bb\L
.	8ddd\
*rep	*
4G\ 4B 4d	8gg\
.	8ddd\J
*Xrep	*
=16	=16
4G\ 4c 4e	4ccc\
4r	4r
=:|!	=:|!
*-	*-
!!!system-decoration: [(s1,s2)]
!!!RDF**kern: > = above
!!!RDF**kern: < = below
!!!EED: Mateusz Mrugas
!!!EEV: 2020-12-12
!!!ENC: Berenika Jozajtis
!!!END: 2020-06-18
